dist/img/icons/icons.svg

<?xml version="1.0" encoding="utf-8"?><svg viewBox="0 0 130 23" xmlns="http://www.w3.org/2000/svg" xmlns:xlink="http://www.w3.org/1999/xlink"><style>:root>svg{display:none}:root>svg:target{display:block}</style>



<svg  viewBox="0 0 130 19" fill="none" id="54_agency">
<g style="mix-blend-mode:exclusion">
<g class="icon__wrap"><path class="icon__item" d="M112.438 0.722656H117.289L121.219 7.46679L125.198 0.722656H130.001L123.209 11.5181V18.3108H119.06V11.4696L112.438 0.722656Z" fill="white"/></g>

<path d="M110.53 11.7589H114.605C113.95 15.8344 110.675 18.6243 106.236 18.6243C100.753 18.6243 97.4297 15.1309 97.4297 9.50273C97.4297 3.94731 100.85 0.429688 106.357 0.429688C110.748 0.429688 113.902 3.2923 114.484 7.29512H110.409C109.948 4.89343 108.177 3.85027 106.212 3.85027C103.761 3.85027 101.821 5.91233 101.821 9.50273C101.821 13.2144 103.737 15.2037 106.26 15.2037C108.08 15.2037 109.996 14.4274 110.53 11.7589Z" fill="white"/>
<path d="M96.7724 18.3108H91.7264L84.6669 6.18104V18.3108H80.6641V0.722656H85.71L92.7695 12.8524V0.722656H96.7724V18.3108Z" fill="white"/>
<path d="M66.0312 18.3108V0.722656H79.5195V4.36158H70.1796V7.44253H79.0101V11.1057H70.1796V14.6476H79.5195V18.3108H66.0312Z" fill="white"/>
<path d="M56.3979 0.429688C60.3037 0.429688 63.4331 2.3947 64.2822 6.2277H60.2066C59.8185 5.01473 58.6055 3.85027 56.3494 3.85027C53.8021 3.85027 51.8128 5.74251 51.8128 9.45421C51.8128 13.1659 53.6323 15.2037 56.4221 15.2037C58.3386 15.2037 60.3279 14.4759 60.3279 12.244V11.9044H56.0825V8.50809H64.4763V18.3089H61.2983L61.177 16.3682C60.0368 17.9208 58.3144 18.6243 55.7914 18.6243C50.6241 18.6243 47.4219 15.0824 47.4219 9.45421C47.4219 3.89879 51.0608 0.429688 56.3979 0.429688Z" fill="white"/>
<path d="M31.3125 18.3108L37.9353 0.722656H42.4961L49.1432 18.3108H44.6309L43.5635 15.1813H36.7709L35.7277 18.3108H31.3125ZM40.1915 5.11362L37.9111 11.8092H42.4476L40.1915 5.11362Z" fill="white"/>
<path d="M22.5323 5.93844L18.3597 11.0814H22.5323V5.93844ZM28.9611 11.0814V14.5991H26.5352V18.3108H22.5323V14.5991H13.9688V11.4696L22.8235 0.722656H26.5352V11.0814H28.9611Z" fill="white"/>
<path d="M7.0595 15.6665C8.83045 15.6665 10.1647 14.5506 10.1647 12.5128C10.1647 10.3537 8.68489 9.31051 7.13228 9.31051C5.74949 9.31051 4.7306 9.91699 4.12411 11.0572L0.46093 10.6933L1.69816 0.722656H13.464V3.97342H5.02171L4.6093 7.27271C5.45838 6.69048 6.86543 6.35085 8.10266 6.35085C11.2807 6.35085 14.2888 8.41291 14.2888 12.4885C14.2888 16.5156 10.9653 18.6261 7.10802 18.6261C3.4691 18.6261 0.582227 16.6369 0 12.9009H3.85726C4.22115 14.9387 5.5069 15.6665 7.0595 15.6665Z" fill="white"/>
</g>
</svg>


<svg fill="none" viewBox="0 0 23 23" id="ArrowRight" xmlns="http://www.w3.org/2000/svg"><path d="M3.594 11.5h15.812M12.938 5.031l6.468 6.469-6.468 6.469" stroke="#fff" stroke-width="2" stroke-linecap="round" stroke-linejoin="round"/>
</svg>
</svg>

<?xml version="1.0" encoding="utf-8"?><svg viewBox="0 0 130 23" xmlns="http://www.w3.org/2000/svg" xmlns:xlink="http://www.w3.org/1999/xlink"><style>:root>svg{display:none}:root>svg:target{display:block}</style><svg fill="none" viewBox="0 0 130 19" id="54_agengy" xmlns="http://www.w3.org/2000/svg"><g style="mix-blend-mode:exclusion" fill="#fff"><path d="M112.438.723h4.851l3.93 6.744 3.979-6.744h4.803l-6.792 10.795v6.793h-4.149V11.47L112.438.723Z"/><path d="M110.53 11.759h4.075c-.655 4.075-3.93 6.865-8.369 6.865-5.483 0-8.806-3.493-8.806-9.121 0-5.556 3.42-9.073 8.927-9.073 4.391 0 7.545 2.862 8.127 6.865h-4.075c-.461-2.402-2.232-3.445-4.197-3.445-2.451 0-4.391 2.062-4.391 5.653 0 3.711 1.916 5.7 4.439 5.7 1.82 0 3.736-.776 4.27-3.444ZM96.772 18.31h-5.046l-7.06-12.129v12.13h-4.002V.723h5.046l7.06 12.13V.722h4.002V18.31ZM66.031 18.31V.724H79.52v3.639h-9.34v3.08h8.831v3.664h-8.83v3.542h9.34v3.663H66.03ZM56.398.43c3.906 0 7.035 1.965 7.884 5.798h-4.075c-.389-1.213-1.602-2.378-3.858-2.378-2.547 0-4.536 1.893-4.536 5.604 0 3.712 1.82 5.75 4.61 5.75 1.916 0 3.905-.728 3.905-2.96v-.34h-4.245V8.508h8.393v9.8h-3.178l-.121-1.94c-1.14 1.553-2.863 2.256-5.386 2.256-5.167 0-8.37-3.542-8.37-9.17 0-5.555 3.64-9.024 8.977-9.024ZM31.313 18.31 37.934.724h4.561l6.647 17.588h-4.512l-1.068-3.13h-6.792l-1.043 3.13h-4.416ZM40.19 5.115l-2.28 6.695h4.537L40.19 5.114ZM22.532 5.938l-4.172 5.143h4.172V5.938Zm6.43 5.143V14.6h-2.427v3.712h-4.003v-3.712H13.97v-3.13L22.823.724h3.712V11.08h2.426Z"/><path d="M7.06 15.666c1.77 0 3.105-1.115 3.105-3.153 0-2.16-1.48-3.202-3.033-3.202-1.383 0-2.401.606-3.008 1.746l-3.663-.364L1.698.723h11.766v3.25H5.022l-.413 3.3c.85-.583 2.256-.922 3.494-.922 3.178 0 6.186 2.062 6.186 6.138 0 4.027-3.324 6.137-7.181 6.137-3.639 0-6.526-1.99-7.108-5.725h3.857c.364 2.038 1.65 2.765 3.202 2.765Z"/></g></svg><svg fill="none" viewBox="0 0 23 23" id="ArrowRight" xmlns="http://www.w3.org/2000/svg"><path d="M3.594 11.5h15.812M12.938 5.031l6.468 6.469-6.468 6.469" stroke="#fff" stroke-width="2" stroke-linecap="round" stroke-linejoin="round"/></svg></svg>
